public/icons/bookmark-active.svg

<svg width="14" height="20" viewBox="0 0 14 20" fill="none" xmlns="http://www.w3.org/2000/svg">
  <path
    d="M0 2.50004C0 1.83699 0.245833 1.20109 0.683417 0.732245C1.121 0.263396 1.71449 0 2.33333 0L11.6667 0C12.2855 0 12.879 0.263396 13.3166 0.732245C13.7542 1.20109 14 1.83699 14 2.50004V19.3753C13.9999 19.4884 13.9713 19.5993 13.917 19.6963C13.8628 19.7932 13.785 19.8726 13.692 19.926C13.599 19.9794 13.4942 20.0047 13.3888 19.9993C13.2834 19.9939 13.1813 19.958 13.0935 19.8953L7 16.3765L0.9065 19.8953C0.818656 19.958 0.716602 19.9939 0.611207 19.9993C0.505811 20.0047 0.401022 19.9794 0.307999 19.926C0.214977 19.8726 0.137205 19.7932 0.0829664 19.6963C0.028728 19.5993 5.45071e-05 19.4884 0 19.3753V2.50004Z"
    fill="#8A91AB"
    />
</svg>

<svg xmlns="http://www.w3.org/2000/svg" width="14" height="20" fill="none"><path fill="#8A91AB" d="M0 2.5C0 1.837.246 1.201.683.732A2.26 2.26 0 0 1 2.333 0h9.334c.619 0 1.212.263 1.65.732.437.47.683 1.105.683 1.768v16.875a.66.66 0 0 1-.083.321.6.6 0 0 1-.225.23.55.55 0 0 1-.598-.03L7 16.375l-6.093 3.52a.557.557 0 0 1-.824-.2.66.66 0 0 1-.083-.32z"/></svg>
